X:1
T:Kommt, ihr Gspielen
%%score [ 1 2 3 4 ]
L:1/8
Q:1/4=120
M:3/2
K:G
V:1 treble nm="Sopran"
V:2 treble nm="Alt"
V:3 bass nm="Tenor"
V:4 bass nm="Baß"
V:1
 d4 A2 F3 G A2 | d4 A2 F3 G A2 | B4 A2 G4 F2 | %3
w: Kommt, ihr G'spie- len, wir|wolln uns küh- len bei|die- sem fri- schen|
w: Hört, ihr G'sel- len, die|Hünd- lein bel- len, was|wol- len wir be-|
w: Auf, ihr Brü- der, singt|auf und nie- der, den|Som- mer zu ge-|
 E6"^Weise: um 1537\nSatz: Melchior Franck (um 1580-1639)" D6 :: F3 G A2 B4 A2 | F3 G A2 B4 A2 | %6
w: Tau- e.|Wer- det ihr sin- gen,|wird es er- klin- gen|
w: gin- nen:|Las- set uns krie- gen,|las- set uns sie- gen,|
w: win- nen!|Ist es nicht Schan- de|weit in dem Lan- de,|
 B4 A2 G4 F2 | E6 D6 :| %8
w: fern in die- ser|Au- e.|
w: Som- mer- lust ge-|win- nen.|
w: wenn wir uns be-|sin- nen?|
V:2
 A4 E2 D2 F2 F2 | A4 E2 D2 F2 F2 | G4 A2 B4 A2 | A6 F6 :: D2 D2 D2 G4 F2 | D2 D2 D2 G4 F2 | %6
w: Kommt, ihr G'spie- len, wir|wolln uns küh- len bei|die- sem fri- schen|Tau- e.|Wer- det ihr sin- gen,|wird es er- klin- gen|
w: Hört, ihr G'sel- len, die|Hünd- lein bel- len, was|wol- len wir be-|gin- nen:|Las- set uns krie- gen,|las- set uns sie- gen,|
w: Auf, ihr Brü- der, singt|auf und nie- der, den|Som- mer zu ge-|win- nen!|Ist es nicht Schan- de|weit in dem Lan- de,|
 G4 D2 E4 A2 | A6 F6 :| %8
w: fern in die- ser|Au- e.|
w: Som- mer- lust ge-|win- nen.|
w: wenn wir uns be-|sin- nen?|
V:3
 F4 E2 A,2 A,2 D2 | F4 E2 A,2 A,2 D2 | D4 D2 D4 D2 | (C3 B, C2) D6 :: A,2 A,2 D2 D4 D2 | %5
w: Kommt, ihr G'spie- len, wir|wolln uns küh- len bei|die- sem fri- schen|Tau * * e.|Wer- det ihr sin- gen,|
w: Hört, ihr G'sel- len, die|Hünd- lein bel- len, was|wol- len wir be-|gin- * * nen:|Las- set uns krie- gen,|
w: Auf, ihr Brü- der, singt|auf und nie- der, den|Som- mer zu ge-|win- * * nen!|Ist es nicht Schan- de|
 A,2 A,2 D2 D4 D2 | D4 A,2 (B,3 C) D2 | (C3 D C2) D6 :| %8
w: wird es er- klin- gen|fern in die- * ser|Au * * e.|
w: las- set uns sie- gen,|Som- mer- lust * ge-|win- * * nen.|
w: weit in dem Lan- de,|wenn wir uns * be-|sin- * * nen?|
V:4
 D,4 C,2 D,2 D,2 D,2 | D,4 C,2 D,2 D,2 D,2 | G,4 F,2 G,4 D,2 | A,6 D,6 :: D,3 E, F,2 G,4 D,2 | %5
w: Kommt, ihr G'spie- len, wir|wolln uns küh- len bei|die- sem fri- schen|Tau- e.|Wer- det ihr sin- gen,|
w: Hört, ihr G'sel- len, die|Hünd- lein bel- len, was|wol- len wir be-|gin- nen:|Las- set uns krie- gen,|
w: Auf, ihr Brü- der, singt|auf und nie- der, den|Som- mer zu ge-|win- nen!|Ist es nicht Schan- de|
 D,3 E, F,2 G,4 D,2 | G,4 F,2 E,4 D,2 | A,6 D,6 :| %8
w: wird es er- klin- gen|fern in die- ser|Au- e.|
w: las- set uns sie- gen,|Som- mer- lust ge-|win- nen.|
w: weit in dem Lan- de,|wenn wir uns be-|sin- nen?|

